X: 2
T: The Stone In The Field
R: reel
M: 4/4
L: 1/8
K: Ador
EAAG A2 Bd|e~a3 gedB|cBAc B~G3|AcBA GEDG|EAAG A2 Bd|e~a3 gedB|cBcd e~g3|1 dBGB A2 GD:|2 dBGB A2 B/c/d||eabg a2 ab|gabg aged|cBAc BGGB|AcBA GE D2|e~a3 b~g3|agef ~g3a|bgaf gedB|1 AcBG ABcd:|2 AcBG ABAG||


Tune 658	Setting 658

